packages/react/src/components/base/Icon/assets/icon-folder-simple-plus.svg

<svg width="24" height="24" viewBox="0 0 24 24" xmlns="http://www.w3.org/2000/svg" fill="currentColor"> <path d="M20.25 6.00049H12.375L9.87466 4.12549C9.54972 3.8828 9.15522 3.75129 8.74966 3.75049H3.74997C3.25269 3.75049 2.77577 3.94803 2.42414 4.29966C2.07251 4.65129 1.87497 5.12821 1.87497 5.62549V18.3755C1.87497 18.8728 2.07251 19.3497 2.42414 19.7013C2.77577 20.0529 3.25269 20.2505 3.74997 20.2505H20.3334C20.8084 20.25 21.2638 20.0611 21.5997 19.7252C21.9356 19.3893 22.1245 18.9339 22.125 18.4589V7.87549C22.125 7.37821 21.9274 6.90129 21.5758 6.54966C21.2242 6.19803 20.7472 6.00049 20.25 6.00049ZM19.875 18.0005H4.12497V6.00049H8.62497L11.325 8.02549C11.5197 8.17154 11.7566 8.25049 12 8.25049H19.875V18.0005ZM12 9.75049C12.2983 9.75049 12.5845 9.86901 12.7955 10.08C13.0064 10.291 13.125 10.5771 13.125 10.8755V12.0005H14.25C14.5483 12.0005 14.8345 12.119 15.0455 12.33C15.2564 12.541 15.375 12.8271 15.375 13.1255C15.375 13.4239 15.2564 13.71 15.0455 13.921C14.8345 14.132 14.5483 14.2505 14.25 14.2505H13.125V15.3755C13.125 15.6739 13.0064 15.96 12.7955 16.171C12.5845 16.382 12.2983 16.5005 12 16.5005C11.7016 16.5005 11.4155 16.382 11.2045 16.171C10.9935 15.96 10.875 15.6739 10.875 15.3755V14.2505H9.74997C9.4516 14.2505 9.16545 14.132 8.95447 13.921C8.7435 13.71 8.62497 13.4239 8.62497 13.1255C8.62497 12.8271 8.7435 12.541 8.95447 12.33C9.16545 12.119 9.4516 12.0005 9.74997 12.0005H10.875V10.8755C10.875 10.5771 10.9935 10.291 11.2045 10.08C11.4155 9.86901 11.7016 9.75049 12 9.75049Z"/> </svg>

<svg viewBox="0 0 24 24" xmlns="http://www.w3.org/2000/svg" aria-hidden="true" fill="currentColor"><path d="M20.25 6h-7.875l-2.5-1.875A1.9 1.9 0 0 0 8.75 3.75h-5a1.875 1.875 0 0 0-1.875 1.875v12.75A1.875 1.875 0 0 0 3.75 20.25h16.583a1.793 1.793 0 0 0 1.792-1.791V7.875A1.875 1.875 0 0 0 20.25 6m-.375 12H4.125V6h4.5l2.7 2.025c.195.147.432.225.675.225h7.875zM12 9.75a1.125 1.125 0 0 1 1.125 1.126V12h1.125a1.125 1.125 0 0 1 0 2.25h-1.125v1.125a1.125 1.125 0 0 1-2.25 0V14.25H9.75a1.125 1.125 0 1 1 0-2.25h1.125v-1.125A1.125 1.125 0 0 1 12 9.75"/></svg>
